Adwaita++/apps/16/impostazioni.svg

<svg height="16" width="16" xmlns="http://www.w3.org/2000/svg">
  <g fill="#444">
    <path d="m7.467 0h1.066c.591 0 1.067.476 1.067 1.067v1.066c0 .591-.476 1.067-1.067 1.067h-1.066c-.591 0-1.067-.476-1.067-1.067v-1.066c0-.591.476-1.067 1.067-1.067zm0 12.8h1.066c.591 0 1.067.476 1.067 1.067v1.066c0 .591-.476 1.067-1.067 1.067h-1.066c-.591 0-1.067-.476-1.067-1.067v-1.066c0-.591.476-1.067 1.067-1.067zm-5.501-10.08.754-.754a1.064 1.064 0 0 1 1.509 0l.754.754c.418.418.418 1.09 0 1.509l-.754.754a1.064 1.064 0 0 1 -1.509 0l-.754-.754a1.064 1.064 0 0 1 0-1.509zm9.051 9.051.754-.754a1.064 1.064 0 0 1 1.509 0l.754.754c.418.418.418 1.09 0 1.509l-.754.754a1.064 1.064 0 0 1 -1.509 0l-.754-.754a1.064 1.064 0 0 1 0-1.509zm-11.017-3.238v-1.066c0-.591.476-1.067 1.067-1.067h1.066c.591 0 1.067.476 1.067 1.067v1.066c0 .591-.476 1.067-1.067 1.067h-1.066c-.591 0-1.067-.476-1.067-1.067zm12.8 0v-1.066c0-.591.476-1.067 1.067-1.067h1.066c.591 0 1.067.476 1.067 1.067v1.066c0 .591-.476 1.067-1.067 1.067h-1.066c-.591 0-1.067-.476-1.067-1.067zm-10.08 5.501-.754-.754a1.064 1.064 0 0 1 0-1.509l.754-.754a1.064 1.064 0 0 1 1.509 0l.754.754c.418.418.418 1.09 0 1.509l-.754.754a1.064 1.064 0 0 1 -1.509 0zm9.051-9.051-.754-.754a1.064 1.064 0 0 1 0-1.509l.754-.754a1.064 1.064 0 0 1 1.509 0l.754.754c.418.418.418 1.09 0 1.509l-.754.754a1.064 1.064 0 0 1 -1.509 0z"/>
    <path d="m8 1.5c-3.572 0-6.5 2.928-6.5 6.5s2.928 6.5 6.5 6.5 6.5-2.928 6.5-6.5-2.928-6.5-6.5-6.5zm0 3c1.95 0 3.5 1.55 3.5 3.5s-1.55 3.5-3.5 3.5-3.5-1.55-3.5-3.5 1.55-3.5 3.5-3.5z"/>
  </g>
</svg>

<svg xmlns="http://www.w3.org/2000/svg" width="16" height="16">
 <g fill="#444">
  <path d="M7.467 0h1.066C9.124 0 9.6.476 9.6 1.067v1.066c0 .591-.476 1.067-1.067 1.067H7.467C6.876 3.2 6.4 2.724 6.4 2.133V1.067C6.4.476 6.876 0 7.467 0zM7.467 12.8h1.066c.591 0 1.067.476 1.067 1.067v1.066C9.6 15.524 9.124 16 8.533 16H7.467c-.591 0-1.067-.476-1.067-1.067v-1.066c0-.591.476-1.067 1.067-1.067zM1.966 2.72l.754-.754a1.064 1.064 0 0 1 1.509 0l.754.754c.418.418.418 1.09 0 1.509l-.754.754a1.064 1.064 0 0 1-1.509 0l-.754-.754a1.064 1.064 0 0 1 0-1.509zM11.017 11.771l.754-.754a1.064 1.064 0 0 1 1.509 0l.754.754c.418.418.418 1.09 0 1.509l-.754.754a1.064 1.064 0 0 1-1.509 0l-.754-.754a1.064 1.064 0 0 1 0-1.509zM0 8.533V7.467C0 6.876.476 6.4 1.067 6.4h1.066c.591 0 1.067.476 1.067 1.067v1.066c0 .591-.476 1.067-1.067 1.067H1.067C.476 9.6 0 9.124 0 8.533zM12.8 8.533V7.467c0-.591.476-1.067 1.067-1.067h1.066c.591 0 1.067.476 1.067 1.067v1.066c0 .591-.476 1.067-1.067 1.067h-1.066c-.591 0-1.067-.476-1.067-1.067zM2.72 14.034l-.754-.754a1.064 1.064 0 0 1 0-1.509l.754-.754a1.064 1.064 0 0 1 1.509 0l.754.754c.418.418.418 1.09 0 1.509l-.754.754a1.064 1.064 0 0 1-1.509 0zM11.771 4.983l-.754-.754a1.064 1.064 0 0 1 0-1.509l.754-.754a1.064 1.064 0 0 1 1.509 0l.754.754c.418.418.418 1.09 0 1.509l-.754.754a1.064 1.064 0 0 1-1.509 0z"/>
  <path d="M8 1.5C4.428 1.5 1.5 4.428 1.5 8s2.928 6.5 6.5 6.5 6.5-2.928 6.5-6.5S11.572 1.5 8 1.5zm0 3c1.95 0 3.5 1.55 3.5 3.5S9.95 11.5 8 11.5 4.5 9.95 4.5 8 6.05 4.5 8 4.5z" color="#000" font-family="sans-serif" font-weight="400" overflow="visible"/>
 </g>
</svg>
